images_sukapura_svg/cmd/sc_styleupdatebyexample.svg

<svg viewBox="0 0 16 16" xmlns="http://www.w3.org/2000/svg" xmlns:xlink="http://www.w3.org/1999/xlink"><linearGradient id="a" gradientUnits="userSpaceOnUse" x1="8" x2="8" y1="15.461486" y2=".015961"><stop offset="0" stop-color="#0040dd"/><stop offset="1" stop-color="#0a84ff"/></linearGradient>





     /&amp;amp;amp;amp;gt;
 <path d="m8 .01596082c-4.4098186.00003883-7.98400035 3.57422058-7.98403918 7.98403918.00285882 1.6566369.52082449 3.27063 1.48230398 4.619708l1.4781403-1.478139 2.8917419-2.6086057-3.7390702-.4122139c.000462-3.2315451 2.6206412-5.8507921 5.8521863-5.8501042 1.0645936.0025487 2.1083169.2955111 3.0187369.8473283l1.617627-1.6176267c-1.348122-.96185982-2.9615498-1.48033033-4.617627-1.48438598zm6.501735 3.36433048-1.590562 1.5905621-2.77932 3.0291466 3.699514.1207494c.000689 3.2315456-2.618559 5.8517256-5.8501039 5.8521866-1.1154506-.00264-2.2069031-.324081-3.1457323-.92644l-1.4531576 1.453157c1.3481225.961858 2.9615497 1.48033 4.6176268 1.484386 4.409819-.000039 7.984-3.57422 7.984039-7.984039-.002855-1.6566369-.520825-3.2706307-1.482304-4.6197087z" fill="url(#a)"/></svg>

<?xml version="1.0" encoding="UTF-8" standalone="no"?>
<svg
   xmlns:dc="http://purl.org/dc/elements/1.1/"
   xmlns:cc="http://creativecommons.org/ns#"
   xmlns:rdf="http://www.w3.org/1999/02/22-rdf-syntax-ns#"
   xmlns:svg="http://www.w3.org/2000/svg"
   xmlns="http://www.w3.org/2000/svg"
   xmlns:xlink="http://www.w3.org/1999/xlink"
   xmlns:sodipodi="http://sodipodi.sourceforge.net/DTD/sodipodi-0.dtd"
   xmlns:inkscape="http://www.inkscape.org/namespaces/inkscape"
   viewBox="0 0 16 16"
   version="1.1"
   id="svg908"
   sodipodi:docname="sc_styleupdatebyexample.svg"
   inkscape:version="0.92.3 (unknown)"
   inkscape:export-filename="/home/rizmut/Dokumen/Rizmut/Github/libreoffice-style-sukapura/images_sukapura/cmd/sc_styleupdatebyexample.png"
   inkscape:export-xdpi="96"
   inkscape:export-ydpi="96"><metadata
   id="metadata914">
  <rdf:RDF>
    <cc:Work
       rdf:about="">
      <dc:format>image/svg+xml</dc:format>
      <dc:type
         rdf:resource="http://purl.org/dc/dcmitype/StillImage" />
    </cc:Work>
  </rdf:RDF>
</metadata>
<defs
   id="defs912">
  <linearGradient
     gradientTransform="translate(75,-7)"
     id="a-367"
     gradientUnits="userSpaceOnUse"
     x1="14"
     x2="13.79661"
     y1="22"
     y2="2.1355929">
    <stop
       offset="0"
       stop-color="#0040dd"
       id="stop2206" />
    <stop
       offset="1"
       stop-color="#0a84ff"
       id="stop2208" />
  </linearGradient>
  <linearGradient
     inkscape:collect="always"
     xlink:href="#a-367"
     id="linearGradient1552"
     x1="8"
     y1="15"
     x2="8"
     y2="0.50976562"
     gradientUnits="userSpaceOnUse"
     gradientTransform="matrix(1.0659265,0,0,1.0659265,-0.52741185,-0.52741185)" />
</defs>
<sodipodi:namedview
   pagecolor="#ffffff"
   bordercolor="#666666"
   borderopacity="1"
   objecttolerance="10"
   gridtolerance="10"
   guidetolerance="10"
   inkscape:pageopacity="0"
   inkscape:pageshadow="2"
   inkscape:window-width="1366"
   inkscape:window-height="706"
   id="namedview910"
   showgrid="true"
   inkscape:zoom="15.625"
   inkscape:cx="12.779756"
   inkscape:cy="6.8327847"
   inkscape:window-x="0"
   inkscape:window-y="0"
   inkscape:window-maximized="1"
   inkscape:current-layer="svg908">
  <inkscape:grid
     type="xygrid"
     id="grid1554" />
</sodipodi:namedview>





     /&amp;amp;gt;
 <path
   d="M 8,0.01596082 C 3.5901814,0.01599965 0.01599965,3.5901814 0.01596082,8 0.01881964,9.6566369 0.53678531,11.27063 1.4982648,12.619708 L 2.9764051,11.141569 5.868147,8.5329633 2.1290768,8.1207494 C 2.1295388,4.8892043 4.749718,2.2699573 7.9812631,2.2706452 9.0458567,2.2731939 10.08958,2.5661563 11,3.1179735 L 12.617627,1.5003468 C 11.269505,0.53848698 9.6560772,0.02001647 8,0.01596082 Z M 14.501735,3.3802913 12.911173,4.9708534 10.131853,8 13.831367,8.1207494 C 13.832056,11.352295 11.212808,13.972475 7.9812631,13.972936 6.8658125,13.970296 5.77436,13.648855 4.8355308,13.046496 L 3.3823732,14.499653 C 4.7304957,15.461511 6.3439229,15.979983 8,15.984039 12.409819,15.984 15.984,12.409819 15.984039,8 15.981184,6.3433631 15.463214,4.7293693 14.501735,3.3802913 Z"
   id="path906"
   style="fill:url(#linearGradient1552);fill-opacity:1;stroke:none;stroke-width:1.06592643"
   inkscape:connector-curvature="0" />
</svg>
